X: 11174
T: MARCH, From the opera of "Tancredi."
C: Rossini.
Q: "Majestically."
%R: march
B: W. Hamilton "Universal Tune-Book" Vol. 1 Glasgow 1844 p.117 #4
S: http://imslp.org/wiki/Hamilton's_Universal_Tune-Book_(Various)
Z: 2016 John Chambers <jc:trillian.mit.edu>
N: Both strains have final but no initial repeats; fixed.
M: C
L: 1/8
K: D
% - - - - - - - - - - - - - - - - - - - - - - - - -
!f!A/B>c  |\
d3c d>cd>f | A2A>A A>Bc>d |\
e3^d e>de>g | A2A>A B>cd>e |\
(fg/a/ gf e2 a)>a | (fg/a/ gf e2 a)>a |\
(fg/f/ ed c2) B2 | A2a>a az/ :|
|: a/b>(f |\
g)z (a2 g)z (a2 | f2) e/d/c/B/ A>ab>f |\
gz (a2 g)z (a2 | f2) e/d/c/B/ A>[aA][bB]>[c'c] |\
[d'2d2]d>d d>de>f | g2g>g g>ef>g |\
a2[d'd]>[d'd] [e'2e2][c'2c2] | [d'2d2]d>d dz/ :|
% - - - - - - - - - - - - - - - - - - - - - - - - -

%%sep 1 1 500
%%sep 1 1 500

